#include "stdosl.h"
#include "node_fresnel.h"

shader ldpe_coating(
 color Color = color(0.0, 1.0, 0.0),
 float Fac = 0.5,
 normal Normal = N,
 output closure color BSDF = 0) 
{
 float t = clamp(Fac, 0.0, 1.0);
 BSDF = ((1.0 - t) * (color(1, 1, 1) * microfacet_ggx(Normal, 0.1))) + (t * (Color - color(0.2, 0 , 0.2)) * diffuse(Normal));
 }
